X:217
T:Up Ya Boya
R:jig
D:Arcady
Z:id:hn-jig-217
M:6/8
K:Bdor
dcd ~B3|FBd f2g|aec ~A3|EAc edc|
dcd ~B3|FBd f2e|~f3 afe|1 dBA B2c:|2 dBA B2f||
|:bfd ~B3|FBd f2g|aec ABA|EAc edc|
[1 bfd ~B3|FBd f2e|~f3 afe|dBA B2f:|
[2 ~B3 dcd|fed cde|fdB AFE|FBA B2c||

